X:496
T:The Island of Woods
C:Liz Caroll
M:4/4
L:1/8
S:Colin Hume's website,  colinhume.com  - chords can also be printed below the stave.
Q:1/4=102
R:Slow air
%%MIDI ratio 3 1
%%MIDI gchord fic2fIc2
%%MIDI bassprog 46      % Orchestral Harp
%%MIDI chordprog 46     % Orchestral Harp
%%MIDI program 68       % Oboe
K:D
%%center Note: 4 beats to the bar
|: dc | "G"B3A "D"A2 AB | "D"A2 ABA2 dc | "G"B2BA B3A | "/"B2 BcBA (3def |
"Em"g3f "A"edfe | "Bm"f3e "Bm/A"d2 cA | "G"cdcA "Em"GAFD | "A"E6 :|
P:B
(3FGA | "G"BAAF "A"E3D | "D"EFED D2 (3FGA | "G"BdAd "Em"(3GGD (3GFD | "A"E4 E2 (3FGA |
"G"BAAF "A"E3D | "Bm"EFED D2 (3FGA | "G"GAFD "Em"(3EEA, DC | "A"A,6 |]

